svg/OSM-icons/aeroway #98b8df °373737 !label=enaeroway,deLuftfahrt/11006;aeroway=holding_position;!label=enholding position,deHalte- position.svg

<svg xmlns="http://www.w3.org/2000/svg" viewBox="0 0 580 580" enable-background="new 0 0 580 580"><path fill="#111" stroke="#eee" stroke-width="3.408" d="m66.28 1.768c-41.34 0-64.57 21.371-64.57 65.04v450.12c0 40.844 20.896 62.23 62.19 62.23h452.02c41.31 0 62.23-20.314 62.23-62.23v-450.12c0-42.602-20.924-65.04-63.52-65.04-.003 0-448.5-.143-448.35 0z"/><g fill="#fff"><path d="m68.5 515h119l44-446h-39z"/><path d="m511.5 515h-119l-45-446h39z"/><path d="m288.93 65h6v20h-6z"/><path d="m294.93 451.36h-6v-36.636h6v36.636m0-73.27h-6v-36.637h6v36.637m0-73.27h-6v-36.637h6v36.637m0-73.27h-6v-36.636h6v36.636m0-73.27h-6v-36.636h6v36.636"/><path d="m288.93 488h6v20h-6z"/></g></svg>

<?xml version="1.0" encoding="utf-8"?>
<!-- Generator: Adobe Illustrator 15.0.0, SVG Export Plug-In . SVG Version: 6.00 Build 0)  -->
<!DOCTYPE svg PUBLIC "-//W3C//DTD SVG 1.1//EN" "http://www.w3.org/Graphics/SVG/1.1/DTD/svg11.dtd">
<svg version="1.1" xmlns="http://www.w3.org/2000/svg" xmlns:xlink="http://www.w3.org/1999/xlink" x="0px" y="0px" width="580px"
	 height="580px" viewBox="0 0 580 580" enable-background="new 0 0 580 580" xml:space="preserve">
<g id="Layer_1">
	<g id="Layer_1_1_">
		<g id="Layer_2">
			<g id="g1327">
				<path id="path1329" fill="#111111" stroke="#EEEEEE" stroke-width="3.408" d="M66.275,1.768
					c-41.335,0-64.571,21.371-64.571,65.036v450.123c0,40.844,20.896,62.229,62.192,62.229h452.024
					c41.307,0,62.229-20.314,62.229-62.229V66.804c0-42.602-20.924-65.036-63.521-65.036C514.625,1.768,66.133,1.625,66.275,1.768z"
					/>
			</g>
		</g>
	</g>
</g>
<g id="Layer_2_2_">
	<g>
		<g>
			<polygon fill="#FFFFFF" points="68.5,515 187.5,515 231.5,69 192.5,69 			"/>
		</g>
		<g>
			<polygon fill="#FFFFFF" points="511.5,515 392.5,515 347.5,69 386.5,69 			"/>
		</g>
		<g>
			<g>
				<rect x="288.927" y="65" fill="#FFFFFF" width="6" height="20"/>
			</g>
			<g>
				<path fill="#FFFFFF" d="M294.927,451.363h-6v-36.636h6V451.363z M294.927,378.091h-6v-36.637h6V378.091z M294.927,304.818h-6
					v-36.637h6V304.818z M294.927,231.545h-6v-36.636h6V231.545z M294.927,158.272h-6v-36.636h6V158.272z"/>
			</g>
			<g>
				<rect x="288.927" y="488" fill="#FFFFFF" width="6" height="20"/>
			</g>
		</g>
	</g>
</g>
</svg>
